<?xml version="1.0" encoding="UTF-8"?>
<map version="1.10" tiledversion="1.11.2" orientation="orthogonal" renderorder="right-down" width="9" height="9" tilewidth="16" tileheight="16" infinite="0" nextlayerid="14" nextobjectid="1">
 <properties>
  <property name="Music" value="DN.CorianderTheme"/>
  <property name="Warp" value="4 9 EastScarp_DeepMountains 23 14"/>
 </properties>
 <tileset firstgid="1" name="DN.SnS_TreehouseInterior" tilewidth="16" tileheight="16" tilecount="56" columns="7">
  <image source="DN.SnS_TreehouseInterior.png" width="112" height="128"/>
 </tileset>
 <tileset firstgid="57" name="spring_outdoorsTileSheet" tilewidth="16" tileheight="16" tilecount="1975" columns="25">
  <image source="spring_outdoorsTileSheet.png" width="400" height="1264"/>
 </tileset>
 <tileset firstgid="2032" name="paths" tilewidth="16" tileheight="16" tilecount="36" columns="4">
  <image source="paths.png" width="64" height="144"/>
 </tileset>
 <tileset firstgid="2068" name="hime_florist" tilewidth="16" tileheight="16" tilecount="580" columns="29">
  <image source="HxW Muted/hime_florist.png" width="464" height="320"/>
 </tileset>
 <tileset firstgid="2648" name="hime_plantlovers" tilewidth="16" tileheight="16" tilecount="3808" columns="56">
  <image source="plantlovers.png" width="896" height="1088"/>
 </tileset>
 <tileset firstgid="6456" name="DN.SnS_FinalMixInteriors" tilewidth="16" tileheight="16" tilecount="3600" columns="18">
  <image source="DN.SnS_FinalMixInteriors.png" width="288" height="3200"/>
 </tileset>
 <layer id="1" name="Back" width="9" height="9">
  <data encoding="csv">
0,0,0,0,0,0,0,0,0,
0,0,0,0,0,0,0,0,0,
0,0,0,0,0,0,12,0,0,
0,0,16,17,18,19,9210,9211,0,
0,0,23,24,25,26,9228,9229,0,
0,0,30,31,32,33,34,0,0,
0,0,37,38,39,40,41,0,0,
0,0,0,0,46,0,0,0,0,
0,0,0,0,53,0,0,0,0
</data>
 </layer>
 <layer id="11" name="Back2" width="9" height="9">
  <data encoding="csv">
0,0,0,0,0,0,0,0,0,
0,0,0,0,0,0,0,0,0,
0,0,0,0,0,0,0,0,0,
0,0,0,0,0,8054,0,0,0,
0,0,0,0,0,8072,0,0,0,
0,29,0,9374,0,8090,0,0,0,
0,0,9374,9264,9265,9266,0,0,0,
0,0,0,0,0,0,0,0,0,
0,0,0,0,0,0,0,0,0
</data>
 </layer>
 <objectgroup id="2" name="Back"/>
 <layer id="3" name="Buildings" width="9" height="9">
  <data encoding="csv">
0,0,0,0,0,0,0,0,0,
0,1,2,3,4,5,6,7,0,
0,8,9,10,11,12,9192,14,9194,
0,15,3408,3409,3410,3935,0,0,9212,
0,9338,9339,0,0,0,0,0,9230,
0,9356,9357,0,0,0,9246,9247,9248,
0,36,0,0,0,0,9354,42,0,
0,43,44,45,0,47,48,49,0,
0,50,51,52,0,54,55,56,0
</data>
 </layer>
 <layer id="12" name="Buildings2" width="9" height="9">
  <data encoding="csv">
0,0,0,0,0,0,0,0,0,
0,2485,0,0,2427,2428,2429,2430,0,
0,2514,0,0,2456,2457,2458,9193,0,
0,2593,0,0,0,0,0,0,0,
0,2622,0,0,0,0,0,0,0,
0,0,0,0,0,0,0,9337,0,
0,2684357016,2684356987,0,0,0,0,9355,0,
0,2684357017,2684356988,0,0,0,0,0,0,
0,0,0,0,0,0,0,0,0
</data>
 </layer>
 <objectgroup id="4" name="Buildings"/>
 <objectgroup id="6" name="Paths"/>
 <layer id="7" name="Front" width="9" height="9">
  <data encoding="csv">
997,998,998,1000,999,2147484648,2147484646,2147484646,2147484645,
1022,1023,1024,1025,2147484673,2147484673,2147484672,2147484671,2147484670,
1072,1073,3352,3353,3354,3879,9192,2147484721,2147484720,
1047,1048,0,0,0,0,9282,9283,2147484695,
1072,1073,0,0,0,0,9300,9301,2147484720,
1047,1048,0,0,0,0,9336,2147484696,2147484695,
1072,1073,0,0,0,0,0,2147484721,2147484720,
1097,1098,1099,1100,0,2147484748,2147484747,2147484746,2147484745,
1122,1123,1123,1125,0,2147484773,2147484771,2147484771,2147484770
</data>
 </layer>
 <layer id="13" name="Front2" width="9" height="9">
  <data encoding="csv">
0,0,0,0,0,0,0,0,0,
0,0,0,0,0,0,0,0,0,
0,0,0,0,0,0,0,0,0,
0,0,0,0,0,0,0,0,0,
0,9340,0,0,0,0,0,0,0,
0,0,0,0,0,0,0,0,0,
0,0,0,0,0,0,0,0,0,
0,0,0,8181,8182,8183,0,0,0,
0,0,0,8199,8200,8201,0,0,0
</data>
 </layer>
 <objectgroup id="8" name="Front"/>
 <layer id="9" name="Always Front" width="9" height="9">
  <data encoding="csv">
0,0,2238,2239,2240,0,0,0,0,
0,0,2267,2268,2487,2488,0,0,0,
0,0,0,0,0,0,0,2459,0,
0,0,0,0,0,0,9138,0,0,
0,0,0,0,0,0,9156,0,0,
0,0,0,0,0,0,0,0,0,
0,0,0,0,0,0,0,0,0,
0,0,0,536873399,8182,2684357047,0,0,0,
0,0,0,536873400,8200,2684357048,0,0,0
</data>
 </layer>
 <objectgroup id="10" name="Always Front"/>
 <layer id="5" name="Paths" width="9" height="9" visible="0">
  <data encoding="csv">
0,0,0,0,0,0,0,0,0,
0,0,2040,0,2040,0,2040,0,0,
0,0,0,0,0,0,0,0,0,
0,0,2040,0,2040,0,2040,0,0,
0,0,0,0,0,0,0,0,0,
0,0,2040,0,2040,0,2040,0,0,
0,0,0,0,0,0,0,0,0,
0,0,2040,0,2040,0,2040,0,0,
0,0,0,0,0,0,0,0,0
</data>
 </layer>
</map>
