<?xml version="1.0" encoding="UTF-8"?>
<map version="1.10" tiledversion="1.11.2" orientation="orthogonal" renderorder="right-down" width="1" height="2" tilewidth="16" tileheight="16" infinite="0" nextlayerid="31" nextobjectid="15">
 <properties>
  <property name="DayTiles" value="Buildings 56 35 510"/>
  <property name="Light" value="56 35 4"/>
  <property name="NPCWarp" value="59 61 EastScarp_Village 73 1 60 61 EastScarp_Village 74 1 61 61 EastScarp_Village 75 1"/>
  <property name="NightTiles" value="Buildings 56 35 507"/>
  <property name="Outdoors" value="T"/>
  <property name="Warp" value="59 62 EastScarp_Village 73 1 60 62 EastScarp_Village 74 1 61 62 EastScarp_Village 75 1"/>
 </properties>
 <tileset firstgid="1" name="Outdoors2" tilewidth="16" tileheight="16" tilecount="1120" columns="16">
  <image source="spring_outdoorsTileSheet2.png" width="256" height="1120"/>
  <tile id="536">
   <animation>
    <frame tileid="536" duration="1000"/>
    <frame tileid="540" duration="1000"/>
   </animation>
  </tile>
  <tile id="537">
   <animation>
    <frame tileid="537" duration="1000"/>
    <frame tileid="541" duration="1000"/>
   </animation>
  </tile>
  <tile id="538">
   <animation>
    <frame tileid="538" duration="1000"/>
    <frame tileid="542" duration="1000"/>
   </animation>
  </tile>
  <tile id="552">
   <animation>
    <frame tileid="552" duration="1000"/>
    <frame tileid="556" duration="1000"/>
   </animation>
  </tile>
  <tile id="554">
   <animation>
    <frame tileid="554" duration="1000"/>
    <frame tileid="558" duration="1000"/>
   </animation>
  </tile>
  <tile id="568">
   <animation>
    <frame tileid="568" duration="1000"/>
    <frame tileid="572" duration="1000"/>
   </animation>
  </tile>
  <tile id="570">
   <animation>
    <frame tileid="570" duration="1000"/>
    <frame tileid="574" duration="1000"/>
   </animation>
  </tile>
  <tile id="584">
   <animation>
    <frame tileid="584" duration="1000"/>
    <frame tileid="588" duration="1000"/>
   </animation>
  </tile>
  <tile id="600">
   <animation>
    <frame tileid="600" duration="1000"/>
    <frame tileid="604" duration="1000"/>
   </animation>
  </tile>
  <tile id="602">
   <animation>
    <frame tileid="602" duration="1000"/>
    <frame tileid="606" duration="1000"/>
   </animation>
  </tile>
  <tile id="616">
   <animation>
    <frame tileid="616" duration="1000"/>
    <frame tileid="620" duration="1000"/>
   </animation>
  </tile>
  <tile id="617">
   <animation>
    <frame tileid="617" duration="1000"/>
    <frame tileid="621" duration="1000"/>
   </animation>
  </tile>
  <tile id="618">
   <animation>
    <frame tileid="618" duration="1000"/>
    <frame tileid="622" duration="1000"/>
   </animation>
  </tile>
  <tile id="632">
   <animation>
    <frame tileid="632" duration="1000"/>
    <frame tileid="636" duration="1000"/>
   </animation>
  </tile>
  <tile id="633">
   <animation>
    <frame tileid="633" duration="1000"/>
    <frame tileid="637" duration="1000"/>
   </animation>
  </tile>
  <tile id="648">
   <animation>
    <frame tileid="648" duration="1000"/>
    <frame tileid="652" duration="1000"/>
   </animation>
  </tile>
  <tile id="664">
   <animation>
    <frame tileid="664" duration="1000"/>
    <frame tileid="668" duration="1000"/>
   </animation>
  </tile>
  <tile id="665">
   <animation>
    <frame tileid="665" duration="1000"/>
    <frame tileid="669" duration="1000"/>
   </animation>
  </tile>
  <tile id="740">
   <properties>
    <property name="Type" value="Grass"/>
   </properties>
  </tile>
  <tile id="741">
   <properties>
    <property name="Type" value="Grass"/>
   </properties>
  </tile>
  <tile id="752">
   <properties>
    <property name="Type" value="Wood"/>
   </properties>
  </tile>
  <tile id="753">
   <properties>
    <property name="Type" value="Wood"/>
   </properties>
  </tile>
  <tile id="754">
   <properties>
    <property name="Type" value="Wood"/>
   </properties>
  </tile>
  <tile id="755">
   <properties>
    <property name="Type" value="Wood"/>
   </properties>
  </tile>
  <tile id="756">
   <properties>
    <property name="Type" value="Grass"/>
   </properties>
  </tile>
  <tile id="757">
   <properties>
    <property name="Type" value="Grass"/>
   </properties>
  </tile>
  <tile id="772">
   <properties>
    <property name="Type" value="Grass"/>
   </properties>
  </tile>
  <tile id="773">
   <properties>
    <property name="Type" value="Grass"/>
   </properties>
  </tile>
  <tile id="816">
   <properties>
    <property name="Water" value="T"/>
   </properties>
  </tile>
  <tile id="817">
   <properties>
    <property name="Water" value="T"/>
   </properties>
  </tile>
  <tile id="820">
   <properties>
    <property name="Water" value="T"/>
   </properties>
  </tile>
  <tile id="821">
   <properties>
    <property name="Water" value="T"/>
   </properties>
  </tile>
  <tile id="822">
   <properties>
    <property name="Water" value="T"/>
   </properties>
  </tile>
  <tile id="832">
   <properties>
    <property name="Water" value="T"/>
   </properties>
  </tile>
  <tile id="833">
   <properties>
    <property name="Water" value="T"/>
   </properties>
  </tile>
  <tile id="834">
   <properties>
    <property name="Water" value="T"/>
   </properties>
  </tile>
  <tile id="835">
   <properties>
    <property name="Water" value="T"/>
   </properties>
  </tile>
  <tile id="836">
   <properties>
    <property name="Water" value="T"/>
   </properties>
  </tile>
  <tile id="837">
   <properties>
    <property name="Water" value="T"/>
   </properties>
  </tile>
  <tile id="838">
   <properties>
    <property name="Water" value="T"/>
   </properties>
  </tile>
  <tile id="848">
   <properties>
    <property name="Water" value="T"/>
   </properties>
  </tile>
  <tile id="849">
   <properties>
    <property name="Water" value="T"/>
   </properties>
  </tile>
  <tile id="850">
   <properties>
    <property name="Water" value="T"/>
   </properties>
  </tile>
  <tile id="851">
   <properties>
    <property name="Water" value="T"/>
   </properties>
  </tile>
  <tile id="852">
   <properties>
    <property name="Water" value="T"/>
   </properties>
  </tile>
  <tile id="853">
   <properties>
    <property name="Water" value="T"/>
   </properties>
  </tile>
  <tile id="854">
   <properties>
    <property name="Water" value="T"/>
   </properties>
  </tile>
  <tile id="864">
   <properties>
    <property name="Water" value="T"/>
   </properties>
  </tile>
  <tile id="865">
   <properties>
    <property name="Water" value="T"/>
   </properties>
  </tile>
  <tile id="866">
   <properties>
    <property name="Water" value="T"/>
   </properties>
  </tile>
  <tile id="867">
   <properties>
    <property name="Water" value="T"/>
   </properties>
  </tile>
  <tile id="868">
   <properties>
    <property name="Water" value="T"/>
   </properties>
  </tile>
  <tile id="869">
   <properties>
    <property name="Water" value="T"/>
   </properties>
  </tile>
  <tile id="870">
   <properties>
    <property name="Water" value="T"/>
   </properties>
  </tile>
  <tile id="880">
   <properties>
    <property name="Water" value="T"/>
   </properties>
  </tile>
  <tile id="881">
   <properties>
    <property name="Water" value="T"/>
   </properties>
  </tile>
  <tile id="882">
   <properties>
    <property name="Water" value="T"/>
   </properties>
  </tile>
  <tile id="883">
   <properties>
    <property name="Water" value="T"/>
   </properties>
  </tile>
  <tile id="897">
   <animation>
    <frame tileid="897" duration="1000"/>
    <frame tileid="929" duration="1000"/>
   </animation>
  </tile>
  <tile id="912">
   <animation>
    <frame tileid="912" duration="1000"/>
    <frame tileid="944" duration="1000"/>
   </animation>
  </tile>
  <tile id="913">
   <animation>
    <frame tileid="913" duration="1000"/>
    <frame tileid="945" duration="1000"/>
   </animation>
  </tile>
  <tile id="914">
   <animation>
    <frame tileid="914" duration="1000"/>
    <frame tileid="915" duration="1000"/>
   </animation>
  </tile>
  <tile id="930">
   <animation>
    <frame tileid="930" duration="1000"/>
    <frame tileid="931" duration="1000"/>
   </animation>
  </tile>
  <tile id="960">
   <animation>
    <frame tileid="960" duration="1000"/>
    <frame tileid="992" duration="1000"/>
   </animation>
  </tile>
  <tile id="962">
   <animation>
    <frame tileid="962" duration="1000"/>
    <frame tileid="963" duration="1000"/>
   </animation>
  </tile>
  <tile id="968">
   <animation>
    <frame tileid="968" duration="1000"/>
    <frame tileid="1000" duration="1000"/>
   </animation>
  </tile>
  <tile id="976">
   <animation>
    <frame tileid="976" duration="1000"/>
    <frame tileid="1008" duration="1000"/>
   </animation>
  </tile>
  <tile id="977">
   <animation>
    <frame tileid="977" duration="1000"/>
    <frame tileid="1009" duration="1000"/>
   </animation>
  </tile>
  <tile id="978">
   <animation>
    <frame tileid="978" duration="1000"/>
    <frame tileid="979" duration="1000"/>
   </animation>
  </tile>
  <tile id="984">
   <animation>
    <frame tileid="984" duration="1000"/>
    <frame tileid="1016" duration="1000"/>
   </animation>
  </tile>
  <tile id="1056">
   <animation>
    <frame tileid="1056" duration="1000"/>
    <frame tileid="1057" duration="1000"/>
   </animation>
  </tile>
  <tile id="1067">
   <animation>
    <frame tileid="1067" duration="1000"/>
    <frame tileid="1066" duration="1000"/>
   </animation>
  </tile>
 </tileset>
 <layer id="1" name="Back" width="1" height="2">
  <data encoding="csv">
0,
0
</data>
 </layer>
 <layer id="15" name="Back1" width="1" height="2">
  <data encoding="csv">
0,
0
</data>
 </layer>
 <objectgroup id="2" name="Back"/>
 <objectgroup id="20" name="Back1"/>
 <layer id="3" name="Buildings" width="1" height="2">
  <data encoding="csv">
0,
214
</data>
 </layer>
 <layer id="25" name="Buildings1" width="1" height="2">
  <data encoding="csv">
198,
0
</data>
 </layer>
 <objectgroup id="4" name="Buildings"/>
 <layer id="7" name="Front" width="1" height="2">
  <data encoding="csv">
0,
0
</data>
 </layer>
 <layer id="28" name="Front1" width="1" height="2">
  <data encoding="csv">
0,
0
</data>
 </layer>
 <objectgroup id="8" name="Front"/>
 <layer id="29" name="AlwaysFront" width="1" height="2">
  <data encoding="csv">
0,
0
</data>
 </layer>
 <layer id="9" name="AlwaysFront1" width="1" height="2">
  <data encoding="csv">
0,
0
</data>
 </layer>
 <layer id="24" name="AlwaysFront2" width="1" height="2">
  <data encoding="csv">
0,
0
</data>
 </layer>
 <objectgroup id="10" name="AlwaysFront"/>
 <layer id="5" name="Paths" width="1" height="2">
  <data encoding="csv">
0,
0
</data>
 </layer>
 <objectgroup id="6" name="Paths"/>
</map>
